docs/img/icon-settings.svg

<svg width="31" height="32" viewBox="0 0 31 32" fill="none" xmlns="http://www.w3.org/2000/svg">
<circle cx="4.4286" cy="4.4286" r="4.4286" transform="matrix(-1 0 0 1 19.5054 11.3335)" stroke="white" stroke-width="2"/>
<path d="M21.7197 5.33634L22.2197 4.47031L21.7197 5.33634ZM21.7197 26.1872L22.2197 27.0532L21.7197 26.1872ZM8.43391 26.1872L7.93391 27.0532L8.43391 26.1872ZM8.43391 5.33634L7.93391 4.47031L8.43391 5.33634ZM10.587 2.23582L11.573 2.40227L10.587 2.23582ZM1.40607 12.1532L0.825659 12.9676L1.40607 12.1532ZM1.03655 11.1894L0.0856426 10.88L1.03655 11.1894ZM4.94535 25.7811L5.2329 26.7389L4.94535 25.7811ZM4.0379 25.5633L3.29036 26.2276L4.0379 25.5633ZM11.1851 30.0057L11.4481 29.0409L11.1851 30.0057ZM10.587 29.2881L11.5731 29.1218L10.587 29.2881ZM19.5666 29.2881L20.5527 29.4544L19.5666 29.2881ZM18.9685 30.0056L18.7055 29.0408L18.9685 30.0056ZM26.1156 25.5633L25.368 24.8991L26.1156 25.5633ZM25.2082 25.7811L25.4957 24.8233L25.2082 25.7811ZM29.1169 11.1894L28.166 11.4989L29.1169 11.1894ZM1.03655 20.3346L0.0856425 20.644L1.03655 20.3346ZM1.40607 19.3708L0.825659 18.5564L1.40607 19.3708ZM26.1152 5.9603L25.3677 6.62455L26.1152 5.9603ZM4.94564 5.74248L4.65815 6.70026L4.94564 5.74248ZM19.5667 2.23586L18.5806 2.40233L19.5667 2.23586ZM18.9686 1.51844L18.7056 2.48323L18.9686 1.51844ZM18.5806 2.40233C18.8404 3.94073 19.7604 5.35983 21.2197 6.20236L22.2197 4.47031C21.2985 3.93847 20.7174 3.04504 20.5527 2.06939L18.5806 2.40233ZM21.2197 6.20236C22.5685 6.98111 24.1144 7.11475 25.4953 6.70031L24.9204 4.78472C24.0453 5.04736 23.0717 4.96222 22.2197 4.47031L21.2197 6.20236ZM30.0678 10.88C29.3885 8.7928 28.2861 6.89785 26.8627 5.29605L25.3677 6.62455C26.6116 8.02444 27.5736 9.67889 28.166 11.4989L30.0678 10.88ZM27.8863 15.762C27.8863 14.6102 28.4533 13.5909 29.3278 12.9676L28.1669 11.3389C26.7885 12.3214 25.8863 13.9363 25.8863 15.762H27.8863ZM29.3278 18.5564C28.4533 17.9331 27.8863 16.9138 27.8863 15.762H25.8863C25.8863 17.5877 26.7885 19.2026 28.1669 20.1851L29.3278 18.5564ZM26.8631 26.2275C28.2863 24.6258 29.3886 22.731 30.0678 20.644L28.166 20.0251C27.5737 21.8449 26.6118 23.4993 25.368 24.8991L26.8631 26.2275ZM22.2197 27.0532C23.0718 26.5612 24.0455 26.4761 24.9206 26.7388L25.4957 24.8233C24.1147 24.4087 22.5687 24.5423 21.2197 25.3211L22.2197 27.0532ZM20.5527 29.4544C20.7173 28.4787 21.2984 27.5851 22.2197 27.0532L21.2197 25.3211C19.7602 26.1638 18.8401 27.5831 18.5805 29.1217L20.5527 29.4544ZM15.0767 31.524C16.5134 31.524 17.9067 31.3315 19.2315 30.9704L18.7055 29.0408C17.5506 29.3556 16.3341 29.524 15.0767 29.524V31.524ZM10.9221 30.9705C12.2469 31.3316 13.6401 31.524 15.0767 31.524V29.524C13.8194 29.524 12.603 29.3557 11.4481 29.0409L10.9221 30.9705ZM7.93391 27.0532C8.85521 27.5851 9.43635 28.4787 9.60097 29.4545L11.5731 29.1218C11.3135 27.5831 10.3934 26.1638 8.93391 25.3211L7.93391 27.0532ZM5.2329 26.7389C6.10808 26.4761 7.08181 26.5612 7.93391 27.0532L8.93391 25.3211C7.58492 24.5423 6.03882 24.4087 4.65779 24.8233L5.2329 26.7389ZM0.0856425 20.644C0.764869 22.731 1.86717 24.6258 3.29036 26.2276L4.78544 24.8991C3.54163 23.4993 2.57975 21.845 1.98746 20.0251L0.0856425 20.644ZM2.26711 15.762C2.26711 16.9138 1.70016 17.9331 0.825659 18.5564L1.98649 20.1851C3.36492 19.2026 4.26711 17.5877 4.26711 15.762H2.26711ZM0.825659 12.9676C1.70016 13.5909 2.26711 14.6102 2.26711 15.762H4.26711C4.26711 13.9363 3.36492 12.3214 1.98649 11.3389L0.825659 12.9676ZM3.29077 5.296C1.86738 6.89781 0.764933 8.79278 0.0856426 10.88L1.98745 11.4989C2.57981 9.67887 3.54182 8.0244 4.78579 6.6245L3.29077 5.296ZM7.93391 4.47031C7.08188 4.96223 6.10825 5.04737 5.23313 4.78469L4.65815 6.70026C6.03909 7.11476 7.58504 6.98114 8.93391 6.20236L7.93391 4.47031ZM9.60091 2.06936C9.43621 3.04502 8.8551 3.93847 7.93391 4.47031L8.93391 6.20236C10.3932 5.35982 11.3133 3.94069 11.573 2.40227L9.60091 2.06936ZM15.0767 0C13.6401 0 12.2468 0.19246 10.922 0.553576L11.448 2.48317C12.603 2.16835 13.8194 2 15.0767 2V0ZM19.2316 0.553641C17.9068 0.192483 16.5134 0 15.0767 0V2C16.3341 2 17.5506 2.16837 18.7056 2.48323L19.2316 0.553641ZM11.573 2.40227C11.5748 2.3917 11.5774 2.39587 11.5644 2.41201C11.5487 2.43166 11.5101 2.46624 11.448 2.48317L10.922 0.553576C10.1346 0.768223 9.70571 1.44858 9.60091 2.06936L11.573 2.40227ZM1.98649 11.3389C1.97596 11.3314 1.97982 11.3286 1.98749 11.3475C1.99201 11.3586 1.9981 11.3785 1.99964 11.4066C2.00124 11.4357 1.99757 11.4679 1.98745 11.4989L0.0856426 10.88C-0.200199 11.7582 0.255927 12.5615 0.825659 12.9676L1.98649 11.3389ZM4.65779 24.8233C4.64765 24.8264 4.65029 24.8222 4.67048 24.8267C4.69501 24.8321 4.74287 24.8512 4.78544 24.8991L3.29036 26.2276C3.83155 26.8366 4.63018 26.9198 5.2329 26.7389L4.65779 24.8233ZM11.4481 29.0409C11.5102 29.0578 11.5488 29.0924 11.5645 29.112C11.5775 29.1282 11.5749 29.1323 11.5731 29.1218L9.60097 29.4545C9.70571 30.0753 10.1346 30.7558 10.9221 30.9705L11.4481 29.0409ZM18.5805 29.1217C18.5788 29.1323 18.5761 29.1281 18.5891 29.112C18.6049 29.0923 18.6434 29.0577 18.7055 29.0408L19.2315 30.9704C20.019 30.7557 20.4479 30.0753 20.5527 29.4544L18.5805 29.1217ZM25.368 24.8991C25.4106 24.8512 25.4585 24.8321 25.483 24.8266C25.5032 24.8222 25.5058 24.8263 25.4957 24.8233L24.9206 26.7388C25.5233 26.9198 26.322 26.8366 26.8631 26.2275L25.368 24.8991ZM28.166 11.4989C28.1559 11.4679 28.1522 11.4357 28.1538 11.4066C28.1553 11.3785 28.1614 11.3586 28.1659 11.3475C28.1736 11.3286 28.1775 11.3314 28.1669 11.3389L29.3278 12.9676C29.8975 12.5615 30.3536 11.7582 30.0678 10.88L28.166 11.4989ZM1.98746 20.0251C1.99757 20.0562 2.00124 20.0883 1.99964 20.1174C1.9981 20.1455 1.99201 20.1654 1.98749 20.1766C1.97982 20.1954 1.97596 20.1926 1.98649 20.1851L0.825659 18.5564C0.255927 18.9625 -0.200198 19.7658 0.0856425 20.644L1.98746 20.0251ZM25.4953 6.70031C25.5055 6.69726 25.5028 6.70145 25.4826 6.69698C25.4581 6.69155 25.4102 6.67244 25.3677 6.62455L26.8627 5.29605C26.3216 4.68709 25.5231 4.60384 24.9204 4.78472L25.4953 6.70031ZM4.78579 6.6245C4.74323 6.67239 4.69537 6.69151 4.67084 6.69693C4.65066 6.7014 4.64801 6.69722 4.65815 6.70026L5.23313 4.78469C4.63045 4.60379 3.83192 4.68702 3.29077 5.296L4.78579 6.6245ZM28.1669 20.1851C28.1775 20.1926 28.1736 20.1954 28.1659 20.1766C28.1614 20.1654 28.1553 20.1455 28.1538 20.1174C28.1522 20.0883 28.1559 20.0562 28.166 20.0251L30.0678 20.644C30.3536 19.7658 29.8975 18.9625 29.3278 18.5564L28.1669 20.1851ZM20.5527 2.06939C20.4479 1.44863 20.0191 0.768295 19.2316 0.553641L18.7056 2.48323C18.6435 2.4663 18.605 2.43171 18.5892 2.41207C18.5762 2.39593 18.5789 2.39175 18.5806 2.40233L20.5527 2.06939Z" fill="white"/>
</svg>

<svg xmlns="http://www.w3.org/2000/svg" width="31" height="32" fill="none"><circle cx="4.429" cy="4.429" r="4.429" stroke="#fff" stroke-width="2" transform="matrix(-1 0 0 1 19.505 11.334)"/><path fill="#fff" d="m21.72 5.336.5-.866zm0 20.851.5.866zm-13.286 0-.5.866zm0-20.85-.5-.867zm2.153-3.101.986.166zm-9.18 9.917-.581.815zm-.37-.964-.951-.309zm3.908 14.592.288.958zm-.907-.218-.748.665zm7.147 4.443.263-.965zm-.598-.718.986-.166zm8.98 0 .986.166zm-.599.718-.262-.965zm7.148-4.443-.748-.664zm-.908.218.288-.958zm3.909-14.592-.951.31zm-28.08 9.146-.951.309zm.37-.964-.581-.815zM26.114 5.96l-.747.664zm-21.17-.219-.287.958zm14.622-3.506-.986.166zm-.598-.718-.263.965zm-.388.884a5.42 5.42 0 0 0 2.639 3.8l1-1.732a3.42 3.42 0 0 1-1.667-2.4zm2.639 3.8a5.42 5.42 0 0 0 4.275.498l-.575-1.915a3.42 3.42 0 0 1-2.7-.315zm8.848 4.678a15.7 15.7 0 0 0-3.205-5.584l-1.495 1.329a13.75 13.75 0 0 1 2.798 4.874zm-2.182 4.882a3.42 3.42 0 0 1 1.442-2.794l-1.161-1.63a5.42 5.42 0 0 0-2.28 4.424zm1.442 2.794a3.42 3.42 0 0 1-1.442-2.794h-2c0 1.826.902 3.44 2.28 4.423zm-2.465 7.671a15.7 15.7 0 0 0 3.205-5.583l-1.902-.619a13.75 13.75 0 0 1-2.798 4.874zm-4.643.826a3.42 3.42 0 0 1 2.7-.314l.576-1.916a5.42 5.42 0 0 0-4.276.498zm-1.667 2.401a3.42 3.42 0 0 1 1.667-2.4l-1-1.733a5.42 5.42 0 0 0-2.64 3.8zm-5.476 2.07c1.436 0 2.83-.193 4.155-.554l-.526-1.93a13.8 13.8 0 0 1-3.63.484zm-4.155-.553a15.8 15.8 0 0 0 4.155.553v-2a13.8 13.8 0 0 1-3.629-.483zm-2.988-3.918A3.42 3.42 0 0 1 9.6 29.454l1.972-.332a5.42 5.42 0 0 0-2.64-3.8zm-2.701-.314a3.42 3.42 0 0 1 2.7.314l1-1.732a5.42 5.42 0 0 0-4.275-.498zM.086 20.644a15.75 15.75 0 0 0 3.204 5.584l1.495-1.329a13.7 13.7 0 0 1-2.798-4.874zm2.181-4.882a3.42 3.42 0 0 1-1.441 2.794l1.16 1.63a5.42 5.42 0 0 0 2.281-4.424zM.826 12.968a3.42 3.42 0 0 1 1.441 2.794h2c0-1.826-.902-3.44-2.28-4.423zM3.29 5.296A15.7 15.7 0 0 0 .086 10.88l1.901.619a13.75 13.75 0 0 1 2.799-4.874zm4.643-.826a3.42 3.42 0 0 1-2.7.315L4.657 6.7a5.4 5.4 0 0 0 4.276-.498zM9.6 2.07a3.42 3.42 0 0 1-1.667 2.4l1 1.732a5.42 5.42 0 0 0 2.639-3.8zM15.077 0c-1.437 0-2.83.192-4.155.554l.526 1.93A13.8 13.8 0 0 1 15.077 2zm4.155.554A15.8 15.8 0 0 0 15.077 0v2c1.257 0 2.474.168 3.629.483zm-7.659 1.848c.002-.01.004-.006-.009.01a.23.23 0 0 1-.116.071l-.526-1.93c-.787.215-1.216.896-1.321 1.516zM1.986 11.34c-.01-.008-.006-.01.001.008q.009.018.013.06a.3.3 0 0 1-.013.092l-1.901-.62c-.286.878.17 1.681.74 2.088zm2.672 13.484c-.01.003-.008 0 .012.004a.23.23 0 0 1 .115.072L3.29 26.228c.542.609 1.34.692 1.943.51zm6.79 4.218a.23.23 0 0 1 .117.071c.013.016.01.02.008.01l-1.972.332c.105.621.534 1.302 1.321 1.517zm7.133.08c-.002.011-.005.007.008-.009a.23.23 0 0 1 .117-.071l.526 1.93c.787-.215 1.216-.896 1.32-1.517zm6.787-4.222a.23.23 0 0 1 .115-.072c.02-.005.023 0 .013-.004l-.575 1.916c.602.18 1.401.098 1.942-.512zm2.798-13.4a.3.3 0 0 1-.012-.092.2.2 0 0 1 .012-.06c.008-.018.011-.016 0-.008l1.162 1.629c.57-.406 1.026-1.21.74-2.088zM1.987 20.025q.015.047.013.092a.2.2 0 0 1-.013.06c-.007.018-.011.016 0 .008L.825 18.556c-.57.406-1.026 1.21-.74 2.088zM25.495 6.7c.01-.003.008.001-.012-.003a.23.23 0 0 1-.115-.072l1.495-1.329c-.541-.609-1.34-.692-1.943-.511zm-20.71-.075a.23.23 0 0 1-.114.072c-.02.004-.023 0-.013.003l.575-1.915c-.603-.181-1.401-.098-1.942.511zm23.382 13.56c.01.008.007.01-.001-.008a.2.2 0 0 1-.012-.06.3.3 0 0 1 .012-.092l1.902.619c.286-.878-.17-1.681-.74-2.088zM20.553 2.07c-.105-.62-.534-1.3-1.321-1.515l-.526 1.93a.23.23 0 0 1-.117-.072c-.013-.016-.01-.02-.008-.01z"/></svg>
